PortableApps/LibreOfficePortable/App/libreoffice/help/media/icon-themes/cmd/sc_scriptorganizer.svg

<svg viewBox="0 0 16 16" xmlns="http://www.w3.org/2000/svg"><path d="m11 2.0000002c-.265199.0000511-.519519.1054326-.707031.2929688l-3.707031 1.7070312-5.585938-.0000002c-.5522619.0000552-.9999448.4477381-1 1.0000002v8.9999998h1 12l2.744519-7.007153c.297854-.992847.297854-.992847-.744519-.992847h-1v-3c-.000055-.5522619-.447738-.9999448-1-1zm0 1 2-.0000002v3h-8.9788136c-1.0211864 0-1.0211864 0-1.2796742.990786l-1.7415122 4.67523v-6.6660158l6 .0000002z" fill="#eac282"/><g fill="#fff"><path d="m11 3.0000002-4 2.0000002-6-.0000002v6.6660158l1.7421875-4.675782c.2584878-.990786.2581105-.990234 1.2792969-.990234h8.9785156v-3z"/><path d="m8.4963505 14.627737c0-.483766.4505402-.875912.9343066-.875912v-3.50365-.8759125c0-.4852599.3322628-.8759125.8175179-.8759125h4.321168c.483767 0 .934307.3921461.934307.8759125 0 .4837662-.45054.8759125-.934307.8759125v3.941605.437957c0 .48526-.332263.875913-.817518.875913h-4.3211679c-.4837664 0-.9343066-.392147-.9343066-.875913z" stroke="#808080"/></g></svg>

<svg viewBox="0 0 16 16" xmlns="http://www.w3.org/2000/svg">
  <path
     style="fill:#eac282"
     d="m 11,2.0000002 c -0.265199,5.11e-5 -0.519519,0.1054326 -0.707031,0.2929688 L 6.585938,4.0000002 1,4 C 0.4477381,4.0000552 5.52e-5,4.4477381 0,5.0000002 V 14 H 1 13 L 15.744519,6.992847 C 16.042373,6 16.042373,6 15,6 H 14 V 3 C 13.999945,2.4477381 13.552262,2.0000552 13,2 Z m 0,1 L 13,3 V 6 H 4.0211864 C 3,6 3,6 2.7415122,6.990786 L 1,11.666016 V 5.0000002 l 6,2e-7 z"
     />
  <path
     style="fill:#ffffff"
     d="m 11,3.0000002 -4,2.0000002 -6,-2e-7 V 11.666016 L 2.7421875,6.990234 C 3.0006753,5.999448 3.000298,6 4.0214844,6 H 13 V 3 Z"
     />
<path
   style="fill:#ffffff;stroke:#808080;stroke-width:1"
   d="m 8.4963505,14.627737 c 0,-0.483766 0.4505402,-0.875912 0.9343066,-0.875912 v -3.50365 -0.8759125 c 0,-0.4852599 0.3322628,-0.8759125 0.8175179,-0.8759125 h 4.321168 c 0.483767,0 0.934307,0.3921461 0.934307,0.8759125 0,0.4837662 -0.45054,0.8759125 -0.934307,0.8759125 v 3.941605 0.437957 c 0,0.48526 -0.332263,0.875913 -0.817518,0.875913 H 9.4306571 c -0.4837664,0 -0.9343066,-0.392147 -0.9343066,-0.875913 z"
   />
</svg>
